X: 195
T: SLIP JIG: Rocky Road to Dublin
C: C: Trad.; S: Various
C: Set Leaders: Andrey, Anton
Z: Anton Zille ed., Oleg Naumov arr.; agentf64 at The Session
N: https://thesession.org/members/26966/sets/96719
R: Slip Jig
M: 9/8
L: 1/8
Q: 3/8=114
K: Ador
|:"Em"e=fe "D"d2B "Em"A3|"Am"E2A A2A Bcd|"Am"e=fe d2B A2c|"G"B2G G2A Bcd:||
"Am"e2a a2f "G"g3|"Am"e2a a2A "G"Bcd|"Am"e2a a2f "G"g2e|"D"d2B "G"G2A "Em"Bcd|
"Am"e2a a2f "G"g3|"Am"e2a a2A "G"Bcd|"Am"efg fga g2e|"D"d2B "G"G2A Bcd||

